X:1
T:Suite in C Minor for Lute (trans. to A minor)
T:4. Gigue
T:Johann Sebastian Bach (1685-1750) BWV 997
T:by Mutopia 2013/02/17-53 Scritto con MuseScore, un software libero e gratuito: http://musescore.org/it 
C:Johann Sebastian Bach
Z:by Mutopia 2013/02/17-53
Z:Scritto con MuseScore, un software libero e gratuito: http://musescore.org/it
%%score ( 1 2 )
L:1/8
Q:1/4=80
M:6/8
K:C
V:1 treble-8 nm="Chitarra"
V:2 treble-8 
V:1
 e | (dc)e (cB)e | B>^GA a2 e |{efg} f>ed{/d} c>dB |{Bcd} c>BA A2 e | (A^G)e (BA)e | (cB)e (dc)e | %7
 Ta>^ga b>c'a | ^g3- g2 b | (bc')^g (ga)e | (ef)^c (cd)a | (ab)^f (fg)^d | (^de)B (Bc)^g | %13
 (^ga)e (ef)b | (bc')e (e^d)(a/4b/4c'/) | b>^de ^f/g/a/g/Tf |{/^f} e3- e2 :: b | (a^g)b (fe)b | %19
 (d^c)g (_BA)(g/4a/4_b/) | a>^cd e/f/g/f/e |{/g} f>ed d2 f | (cB)f (AG)f | (fe)_b (ba)c | %24
 B/c/d/e/f- f/e/d/c/^f |{/^f} g3- Mg2 G | (dc)G (ed)G | (fe)G (gf)G | g/f/e/f/g (_BA)a | %29
 b/a/^g/a/b (dc)c' | g^fa (_ed)a | (cB)d (_AG)(d/4e/4f/) | e>ag Te>dc | c3- c2 c' | (^ga)e (ef)=g | %35
 (^cd)A (A_B)d | ^G/A/B/d/c/B/ c/f/e/d/c/B/ | A^G/A/B E2 e | (dc)e (cB)e | B>^GA a2 e | %40
{efg} f>eB{/d} c>dB |{Bcd} c>BA g2 (a/4g/4f/4e/4) | (ef)^c (cd)A | (A_B)^F (FG)d | (de)B (Bc)^G | %45
 (^GA)E (EF)^c | (^cd)A (A_B)e | (ef)A (A^G)(d/4e/4f/) | e>^GA B/c/d/c/TB |({/B} A3 A) :| %50
V:2
 z | A,2 z G,2 z | F,2 z C2 z | D2 z E2 z | A,2 B, CB,A, | E,2 z ^F,2 z | ^G,2 z A,2 z | %7
 F2 z D2 z | E,>^G,B, E>^F^G | A,2 B, C2 ^C | D2 E F2 ^F | G2 A B2 A | G2 F E2 D | C2 z ^G2 z | %14
 A2 z ^F2 z | G2 E B2 B, | E,>^G,B, E2 :: z | E,2 z ^G,2 z | A,2 z ^C2 z | D2 _B, G,2 A, | %21
 D2 E FED | G,2 z B,2 z | C2 z F2 E | D2 B, C2 A, | G,B,D (FE)F | E2 z B,2 z | C2 z D2 z | %28
 E2 z FF z | ^G2 z A2 z | D2 z ^F2 z | G2 z B,2 z | C2 E G2 G, | C>ED C>B,A, | B,2 ^C D2 E | %35
 F2 E D2 C | B,2 E, A,2 F, | E,3- E,>^F,^G, | A,2 z G,2 z | F,2 z C2 z | D2 z E2 z | %41
 A,2 B, ^C2 A, | D2 E F2 ^F, | G,2 A, _B,2 =B, | C2 D E2 D | C2 _B, A,2 G, | F,2 z ^C2 z | %47
 D2 z B,2 z | C2 A, E2 E, | A,>CE C :| %50

